; generated by PrusaSlicer 2.4.2+win64 on 2023-05-05 at 06:36:00 UTC

; 

; external perimeters extrusion width = 0.45mm
; perimeters extrusion width = 0.45mm
; infill extrusion width = 0.45mm
; solid infill extrusion width = 0.45mm
; top infill extrusion width = 0.40mm
; first layer extrusion width = 0.42mm

; external perimeters extrusion width = 0.45mm
; perimeters extrusion width = 0.45mm
; infill extrusion width = 0.45mm
; solid infill extrusion width = 0.45mm
; top infill extrusion width = 0.40mm
; first layer extrusion width = 0.42mm

M73 P0 R136
M73 Q0 S137
M201 X1000 Y1000 Z200 E5000 ; sets maximum accelerations, mm/sec^2
M203 X200 Y200 Z12 E120 ; sets maximum feedrates, mm / sec
M204 P1250 R1250 T1250 ; sets acceleration (P, T) and retract acceleration (R), mm/sec^2
M205 X8.00 Y8.00 Z0.40 E4.50 ; sets the jerk limits, mm/sec
M205 S0 T0 ; sets the minimum extruding and travel feed rate, mm/sec
M107
;TYPE:Custom
M862.3 P "MK3S" ; printer model check
M862.1 P0.4 ; nozzle diameter check
M115 U3.10.1 ; tell printer latest fw version
G90 ; use absolute coordinates
M83 ; extruder relative mode
M104 S215 ; set extruder temp
M140 S60 ; set bed temp
M190 S60 ; wait for bed temp
M109 S215 ; wait for extruder temp
G28 W ; home all without mesh bed level
G80 ; mesh bed leveling
G1 Z0.2 F720
G1 Y-3 F1000 ; go outside print area
G92 E0
G1 X60 E9 F1000 ; intro line
G1 X100 E12.5 F1000 ; intro line
G92 E0
M221 S95

; Don't change E values below. Excessive value can damage the printer.
M907 E430 ; set extruder motor current
G21 ; set units to millimeters
G90 ; use absolute coordinates
M83 ; use relative distances for extrusion
M900 K0.05 ; Filament gcode LA 1.5
M900 K30 ; Filament gcode LA 1.0
M107
;LAYER_CHANGE
;Z:0.2
;HEIGHT:0.2
;BEFORE_LAYER_CHANGE
G92 E0.0
;0.2


G1 E-.8 F2100
M73 Q0 S136
G1 Z.4 F720
;AFTER_LAYER_CHANGE
;0.2
G1 X60.78 Y65.093 F10800
G1 Z.2 F720
G1 E.8 F2100
M204 S800
;TYPE:Skirt/Brim
;WIDTH:0.42
G1 F1200
G1 X71.437 Y55.142 E.45716
G1 X72.428 Y54.347 E.03981
G1 X73.165 Y53.887 E.02727
G1 X73.854 Y53.535 E.02426
G1 X75.042 Y53.085 E.03982
G1 X76.465 Y52.776 E.04565
G1 X77.626 Y52.693 E.03649
G1 X186.904 Y52.695 E3.42633
G1 X188.55 Y52.875 E.05193
G1 X189.775 Y53.209 E.03982
G1 X190.581 Y53.535 E.02727
G1 X192.008 Y54.347 E.05148
G1 X193.419 Y55.552 E.05816
G1 X194.444 Y56.835 E.05149
G1 X195.074 Y57.937 E.0398
G1 X195.414 Y58.737 E.02727
G1 X195.849 Y60.321 E.05149
G1 X195.993 Y61.784 E.0461
G1 X195.98 Y145.449 E2.62325
G1 X195.849 Y146.619 E.03691
M73 P0 R135
G1 X195.478 Y148.027 E.04566
G1 X194.892 Y149.36 E.04565
G1 X194.105 Y150.585 E.04565
G1 X193.136 Y151.671 E.04565
G1 X192.008 Y152.593 E.04565
G1 X190.751 Y153.326 E.04565
G1 X189.394 Y153.854 E.04565
G1 X187.971 Y154.163 E.04565
G1 X186.81 Y154.247 E.03649
G1 X116.047 Y154.247 E2.21874
G1 X114.56 Y154.114 E.0468
G1 X113.505 Y153.87 E.03396
G1 X112.569 Y153.539 E.03113
G1 X73.999 Y137.146 E1.31402
G1 X72.542 Y136.347 E.05211
G1 X71.334 Y135.38 E.04853
G1 X70.303 Y134.225 E.04852
G1 X69.436 Y132.832 E.05146
G1 X50.934 Y95.633 E1.30264
G1 X50.685 Y94.575 E.0341
G1 X50.685 Y75.75 E.59024
G1 X51.382 Y74.069 E.05704
G1 X54.428 Y71.025 E.13502
G1 X60.736 Y65.134 E.27064
M204 S1000
;WIPE_START
G1 F8640
G1 X63.142 Y62.888 E-.76
;WIPE_END
G1 E-.04 F2100
G1 Z.6 F720
G1 X60.754 Y73.082 F10800
G1 Z.2 F720
G1 E.8 F2100
M204 S800
G1 F1200
G1 X66.814 Y73.069 E.19001
G1 X67.8 Y73.287 E.03166
G1 X68.697 Y73.69 E.03084
G1 X69.811 Y74.597 E.04506
G1 X70.614 Y75.778 E.04477
G1 X70.786 Y76.314 E.01763
G1 X71.104 Y76.264 E.01012
G1 X71.104 Y61.886 E.4508
G1 X71.175 Y61.012 E.02749
G1 X71.351 Y60.177 E.02676
G1 X71.929 Y58.769 E.04772
G1 X72.361 Y58.093 E.02517
G1 X72.882 Y57.456 E.0258
G1 X74.056 Y56.461 E.04825
G1 X74.9 Y55.988 E.03034
G1 X75.783 Y55.647 E.02968
G1 X76.704 Y55.435 E.02964
G1 X77.631 Y55.356 E.02914
G1 X186.824 Y55.357 E3.42368
G1 X188.012 Y55.484 E.03747
G1 X188.772 Y55.684 E.02465
G1 X189.488 Y55.964 E.02407
G1 X190.492 Y56.54 E.03632
G1 X191.386 Y57.287 E.03652
G1 X192.181 Y58.242 E.03894
G1 X192.592 Y58.933 E.02523
G1 X192.918 Y59.667 E.02518
G1 X193.215 Y60.741 E.03493
G1 X193.331 Y61.87 E.03561
G1 X193.331 Y145.069 E2.60864
G1 X193.26 Y145.934 E.02721
G1 X193.07 Y146.813 E.02819
G1 X192.522 Y148.142 E.0451
G1 X192.062 Y148.865 E.02684
G1 X191.53 Y149.508 E.02616
G1 X190.409 Y150.458 E.0461
G1 X189.56 Y150.941 E.03062
G1 X188.653 Y151.293 E.03051
G1 X187.731 Y151.504 E.02963
G1 X186.805 Y151.583 E.02914
G1 X116.039 Y151.583 E2.21884
G1 X115.06 Y151.497 E.03081
G1 X114.328 Y151.334 E.02352
G1 X113.604 Y151.084 E.024
G1 X75.046 Y134.697 E1.31362
G1 X74.152 Y134.215 E.03185
G1 X73.349 Y133.61 E.03151
G1 X72.647 Y132.89 E.03154
G1 X72.042 Y132.042 E.03265
G1 X71.383 Y130.553 E.05106
G1 X71.183 Y129.658 E.02875
G1 X71.105 Y128.751 E.02853
G1 X71.104 Y94.024 E1.08885
G1 X70.783 Y93.977 E.0102
G1 X70.601 Y94.577 E.01965
G1 X69.982 Y95.523 E.03546
G1 X68.998 Y96.443 E.04224
G1 X67.999 Y96.959 E.03525
G1 X66.825 Y97.257 E.03797
G1 X57.671 Y97.269 E.28703
G1 X56.098 Y96.824 E.05124
G1 X55.101 Y96.181 E.03719
G1 X54.151 Y95.154 E.04388
G1 X53.664 Y94.192 E.03382
G1 X53.349 Y92.88 E.04229
G1 X53.349 Y77.421 E.48469
G1 X53.824 Y75.747 E.05458
G1 X54.47 Y74.769 E.03674
G1 X55.381 Y73.914 E.03918
G1 X56.335 Y73.4 E.03396
G1 X57.439 Y73.089 E.03597
G1 X60.694 Y73.082 E.10203
M204 S1000
G1 X60.694 Y73.455 F10800
M204 S800
G1 F1200
G1 X66.793 Y73.446 E.19124
G1 X67.665 Y73.639 E.02799
G1 X68.481 Y73.999 E.02796
G1 X69.515 Y74.833 E.04166
G1 X70.285 Y75.965 E.04291
G1 X70.671 Y77.26 E.04239
G1 X70.699 Y92.876 E.48964
G1 X70.269 Y94.396 E.0495
G1 X69.679 Y95.297 E.03378
G1 X68.761 Y96.149 E.03928
G1 X67.884 Y96.599 E.03091
G1 X66.8 Y96.88 E.03511
G1 X57.748 Y96.899 E.28382
G1 X56.229 Y96.469 E.0495
G1 X55.328 Y95.879 E.03376
G1 X54.446 Y94.919 E.04088
G1 X54.025 Y94.081 E.0294
G1 X53.726 Y92.857 E.03951
G1 X53.726 Y77.447 E.48316
G1 X54.156 Y75.929 E.04948
G1 X54.745 Y75.028 E.03374
G1 X55.621 Y74.206 E.03766
G1 X56.493 Y73.743 E.03095
G1 X57.515 Y73.459 E.03327
G1 X60.634 Y73.455 E.09779
M204 S1000
G1 X60.635 Y73.826 F10800
M204 S800
G1 F1200
G1 X66.733 Y73.819 E.19123
G1 X67.53 Y73.992 E.02557
G1 X68.305 Y74.334 E.02654
G1 X69.255 Y75.107 E.0384
G1 X69.955 Y76.15 E.03937
G1 X70.301 Y77.339 E.03886
G1 X70.322 Y92.85 E.48632
G1 X69.915 Y94.263 E.04611
G1 X69.406 Y95.036 E.029
G1 X68.524 Y95.855 E.03775
G1 X67.77 Y96.239 E.02654
G1 X66.728 Y96.509 E.03372
G1 X57.775 Y96.521 E.28074
G1 X56.361 Y96.115 E.04611
G1 X55.589 Y95.606 E.029
G1 X54.77 Y94.723 E.03775
G1 X54.385 Y93.969 E.02656
G1 X54.103 Y92.834 E.03667
G1 X54.103 Y77.474 E.48158
G1 X54.51 Y76.061 E.04611
G1 X55.019 Y75.288 E.02902
G1 X55.86 Y74.499 E.03615
G1 X56.648 Y74.087 E.0279
G1 X57.59 Y73.83 E.03061
G1 X60.575 Y73.826 E.09357
M204 S1000
G1 X60.575 Y74.197 F10800
M204 S800
G1 F1200
G1 X66.673 Y74.192 E.1912
G1 X67.431 Y74.356 E.02432
G1 X68.127 Y74.668 E.02391
G1 X68.993 Y75.379 E.03515
G1 X69.624 Y76.332 E.03583
G1 X69.932 Y77.417 E.03534
G1 X69.945 Y92.823 E.48304
G1 X69.562 Y94.129 E.04269
G1 X69.132 Y94.776 E.02434
G1 X68.326 Y95.532 E.03465
G1 X67.654 Y95.88 E.02373
G1 X66.657 Y96.138 E.03229
G1 X57.802 Y96.144 E.27764
G1 X56.496 Y95.761 E.04269
G1 X55.849 Y95.332 E.02434
G1 X55.092 Y94.526 E.03465
G1 X54.745 Y93.854 E.02372
G1 X54.48 Y92.81 E.03378
G1 X54.48 Y77.502 E.47997
G1 X54.863 Y76.195 E.04269
G1 X55.293 Y75.548 E.02434
G1 X56.099 Y74.792 E.03465
G1 X56.767 Y74.446 E.0236
G1 X57.665 Y74.2 E.02921
G1 X60.515 Y74.197 E.08934
M204 S1000
G1 X60.515 Y74.568 F10800
M204 S800
G1 F1200
G1 X66.615 Y74.565 E.19124
G1 X67.296 Y74.709 E.02183
G1 X67.949 Y75.001 E.02244
G1 X68.729 Y75.65 E.03182
G1 X69.291 Y76.513 E.03227
G1 X69.561 Y77.492 E.03184
G1 X69.568 Y92.795 E.47982
G1 X69.209 Y93.993 E.03922
G1 X68.857 Y94.517 E.01979
G1 X68.127 Y95.211 E.03158
G1 X67.538 Y95.52 E.02087
G1 X66.586 Y95.767 E.03084
G1 X57.83 Y95.767 E.27452
G1 X56.632 Y95.408 E.03922
G1 X56.108 Y95.057 E.01979
G1 X55.413 Y94.327 E.03158
G1 X55.104 Y93.737 E.02087
G1 X54.857 Y92.785 E.03084
G1 X54.857 Y77.53 E.47833
G1 X55.216 Y76.331 E.03922
M73 Q0 S135
G1 X55.568 Y75.807 E.01979
G1 X56.298 Y75.113 E.03159
G1 X56.887 Y74.804 E.02085
G1 X57.741 Y74.57 E.02776
G1 X60.455 Y74.569 E.08511
M204 S1000
G1 X60.455 Y74.94 F10800
M204 S800
G1 F1200
G1 X66.558 Y74.938 E.19134
G1 X67.161 Y75.062 E.01931
G1 X67.771 Y75.334 E.02093
G1 X68.464 Y75.919 E.02843
G1 X68.957 Y76.69 E.0287
G1 X69.191 Y77.564 E.02837
G1 X69.191 Y92.766 E.47664
G1 X68.857 Y93.854 E.03569
G1 X68.582 Y94.259 E.01536
G1 X67.926 Y94.892 E.02857
G1 X67.419 Y95.162 E.01801
G1 X66.56 Y95.39 E.02785
G1 X57.859 Y95.39 E.27284
G1 X56.77 Y95.057 E.03569
G1 X56.365 Y94.781 E.01536
G1 X55.733 Y94.125 E.02857
G1 X55.463 Y93.618 E.01801
G1 X55.234 Y92.76 E.02785
G1 X55.234 Y77.558 E.47664
G1 X55.568 Y76.47 E.03569
G1 X55.843 Y76.065 E.01536
G1 X56.499 Y75.433 E.02857
G1 X57.007 Y75.162 E.01804
G1 X57.816 Y74.941 E.02629
G1 X60.395 Y74.94 E.08088
M204 S1000
G1 X60.395 Y75.312 F10800
M204 S800
G1 F1200
G1 X66.537 Y75.315 E.19259
G1 X67.062 Y75.426 E.0168
G1 X67.589 Y75.666 E.01817
G1 X68.197 Y76.187 E.0251
G1 X68.602 Y76.818 E.02351
G1 X68.814 Y77.59 E.0251
G1 X68.814 Y92.736 E.4749
G1 X68.507 Y93.712 E.03208
G1 X68.305 Y94.002 E.01106
G1 X67.721 Y94.574 E.02562
G1 X67.297 Y94.805 E.01515
G1 X66.535 Y95.013 E.02478
G1 X57.888 Y95.013 E.2711
G1 X56.912 Y94.706 E.03208
G1 X56.622 Y94.505 E.01106
G1 X56.051 Y93.921 E.02562
G1 X55.82 Y93.496 E.01515
G1 X55.611 Y92.734 E.02478
G1 X55.611 Y77.588 E.4749
G1 X55.918 Y76.612 E.03207
G1 X56.12 Y76.322 E.01106
G1 X56.704 Y75.751 E.02562
G1 X57.128 Y75.52 E.01515
G1 X57.891 Y75.311 E.02479
G1 X60.335 Y75.312 E.07664
M204 S1000
G1 X60.335 Y75.689 F10800
M204 S800
G1 F1200
G1 X66.516 Y75.692 E.1938
G1 X66.959 Y75.79 E.01423
G1 X67.405 Y75.996 E.01541
G1 X67.928 Y76.453 E.02178
G1 X68.247 Y76.948 E.01847
G1 X68.436 Y77.617 E.02179
G1 X68.436 Y92.708 E.47316
G1 X68.179 Y93.523 E.02682
G1 X68.026 Y93.749 E.00855
G1 X67.514 Y94.258 E.02264
G1 X67.171 Y94.448 E.01229
G1 X66.508 Y94.636 E.02163
G1 X57.917 Y94.636 E.26935
G1 X57.101 Y94.379 E.02682
G1 X56.876 Y94.225 E.00855
G1 X56.367 Y93.714 E.02264
G1 X56.176 Y93.371 E.01229
G1 X55.989 Y92.707 E.02163
G1 X55.989 Y77.617 E.47316
G1 X56.246 Y76.801 E.02682
G1 X56.399 Y76.576 E.00855
G1 X56.911 Y76.066 E.02264
G1 X57.254 Y75.876 E.01229
G1 X57.918 Y75.688 E.02164
G1 X60.275 Y75.689 E.07391
M204 S1000
G1 X60.275 Y76.066 F10800
M204 S800
G1 F1200
G1 X66.494 Y76.069 E.19499
G1 X66.853 Y76.152 E.01157
G1 X67.218 Y76.324 E.01266
G1 X67.658 Y76.717 E.01848
G1 X67.894 Y77.082 E.01362
G1 X68.059 Y77.645 E.01841
G1 X68.059 Y92.678 E.47136
G1 X67.851 Y93.337 E.02167
G1 X67.743 Y93.498 E.00606
G1 X67.303 Y93.944 E.01967
G1 X67.042 Y94.094 E.00942
G1 X66.48 Y94.259 E.01838
G1 X57.946 Y94.259 E.26756
G1 X57.287 Y94.05 E.02167
G1 X57.127 Y93.943 E.00606
G1 X56.68 Y93.502 E.01967
G1 X56.531 Y93.242 E.00942
G1 X56.366 Y92.679 E.01838
G1 X56.366 Y77.646 E.47136
G1 X56.574 Y76.987 E.02167
M73 P0 R134
G1 X56.681 Y76.826 E.00606
G1 X57.122 Y76.38 E.01967
G1 X57.383 Y76.231 E.00942
G1 X57.946 Y76.065 E.01839
G1 X60.215 Y76.066 E.07115
M204 S1000
G1 X60.215 Y76.443 F10800
M204 S800
G1 F1200
G1 X66.472 Y76.446 E.19619
G1 X66.71 Y76.501 E.00767
G1 X67.03 Y76.653 E.01111
G1 X67.385 Y76.978 E.01508
G1 X67.542 Y77.219 E.00902
G1 X67.682 Y77.675 E.01495
G1 X67.682 Y92.649 E.46951
G1 X67.52 Y93.155 E.01667
G1 X67.458 Y93.251 E.00358
G1 X67.087 Y93.634 E.01672
G1 X66.907 Y93.741 E.00656
G1 X66.45 Y93.882 E.015
G1 X57.976 Y93.882 E.2657
G1 X57.47 Y93.72 E.01667
G1 X57.374 Y93.658 E.00358
G1 X56.99 Y93.287 E.01672
G1 X56.884 Y93.107 E.00656
G1 X56.743 Y92.65 E.015
G1 X56.743 Y77.675 E.46951
G1 X56.905 Y77.169 E.01667
G1 X56.967 Y77.073 E.00358
G1 X57.338 Y76.69 E.01672
G1 X57.518 Y76.583 E.00656
G1 X57.975 Y76.442 E.015
G1 X60.155 Y76.443 E.06834
M204 S1000
G1 X60.154 Y76.82 F10800
M204 S800
G1 F1200
G1 X66.45 Y76.823 E.19738
G1 X66.567 Y76.851 E.00377
G1 X66.841 Y76.98 E.0095
G1 X67.109 Y77.235 E.0116
G1 X67.192 Y77.362 E.00476
G1 X67.305 Y77.706 E.01136
G1 X67.305 Y92.618 E.46755
G1 X67.168 Y93.009 E.01299
M73 P1 R134
M73 Q1 S135
G1 X66.866 Y93.329 E.0138
G1 X66.765 Y93.391 E.00372
G1 X66.418 Y93.505 E.01143
G1 X58.007 Y93.505 E.26374
G1 X57.616 Y93.368 E.01299
G1 X57.296 Y93.065 E.0138
G1 X57.234 Y92.964 E.00372
G1 X57.12 Y92.618 E.01143
G1 X57.12 Y77.706 E.46755
G1 X57.257 Y77.315 E.01299
G1 X57.559 Y76.996 E.0138
G1 X57.66 Y76.933 E.00372
G1 X58.007 Y76.819 E.01143
G1 X60.094 Y76.82 E.06546
M204 S1000
G1 X60.094 Y77.196 F10800
M204 S800
G1 F1200
G1 X66.397 Y77.196 E.19763
G1 X66.648 Y77.306 E.00856
G1 X66.847 Y77.514 E.00902
G1 X66.928 Y77.741 E.00757
G1 X66.928 Y92.583 E.46535
G1 X66.852 Y92.796 E.00709
G1 X66.611 Y93.046 E.0109
G1 X66.383 Y93.128 E.00757
G1 X58.042 Y93.128 E.26155
G1 X57.829 Y93.051 E.00709
G1 X57.578 Y92.81 E.0109
G1 X57.497 Y92.583 E.00757
G1 X57.497 Y77.741 E.46535
G1 X57.573 Y77.528 E.00709
G1 X57.79 Y77.294 E.01002
G1 X58.042 Y77.196 E.00845
G1 X60.034 Y77.196 E.06248
M204 S1000
G1 X60.034 Y77.574 F10800
M204 S800
G1 F1200
G1 X66.341 Y77.574 E.19775
G1 X66.411 Y77.602 E.00235
G1 X66.522 Y77.714 E.00495
G1 X66.551 Y77.783 E.00235
G1 X66.551 Y92.541 E.46272
G1 X66.522 Y92.61 E.00235
G1 X66.411 Y92.722 E.00495
G1 X66.341 Y92.751 E.00235
G1 X58.084 Y92.751 E.25892
G1 X58.014 Y92.722 E.00235
G1 X57.903 Y92.61 E.00495
G1 X57.874 Y92.541 E.00235
G1 X57.874 Y77.783 E.46272
G1 X57.903 Y77.714 E.00235
G1 X58.014 Y77.602 E.00495
G1 X58.084 Y77.574 E.00235
G1 X59.974 Y77.574 E.05929
M204 S1000
;WIPE_START
G1 F8640
G1 X63.266 Y77.574 E-.76
;WIPE_END
G1 E-.04 F2100
G1 Z.6 F720
G1 X71.482 Y77.574 F10800
G1 Z.2 F720
G1 E.8 F2100
M204 S800
G1 F1200
G1 X71.482 Y61.894 E.49163
G1 X71.546 Y61.078 E.02565
G1 X71.716 Y60.272 E.02584
G1 X72.256 Y58.958 E.04452
G1 X72.673 Y58.306 E.02429
G1 X73.163 Y57.709 E.02421
G1 X74.257 Y56.781 E.04498
G1 X75.05 Y56.334 E.02852
G1 X75.882 Y56.011 E.02799
G1 X76.75 Y55.81 E.02795
G1 X77.639 Y55.733 E.02796
G1 X186.814 Y55.734 E3.42312
G1 X187.931 Y55.852 E.0352
G1 X188.646 Y56.04 E.02318
G1 X189.337 Y56.31 E.02328
G1 X190.29 Y56.859 E.03447
G1 X191.108 Y57.542 E.03341
G1 X191.865 Y58.448 E.03702
G1 X192.252 Y59.097 E.02369
G1 X192.567 Y59.807 E.02438
G1 X192.847 Y60.825 E.03311
G1 X192.954 Y61.88 E.03323
G1 X192.954 Y145.047 E2.60764
G1 X192.889 Y145.868 E.02583
G1 X192.715 Y146.685 E.02619
G1 X192.179 Y147.983 E.04403
G1 X191.763 Y148.634 E.02423
G1 X191.273 Y149.231 E.02422
G1 X190.179 Y150.159 E.04498
G1 X189.386 Y150.606 E.02852
G1 X188.554 Y150.929 E.02799
G1 X187.686 Y151.13 E.02796
G1 X186.797 Y151.206 E.02796
G1 X116.047 Y151.206 E2.21833
G1 X115.13 Y151.126 E.02887
G1 X114.42 Y150.968 E.02278
G1 X113.746 Y150.735 E.02238
G1 X75.201 Y134.353 E1.31315
G1 X74.366 Y133.905 E.02972
G1 X73.608 Y133.336 E.02972
G1 X72.944 Y132.658 E.02975
G1 X72.378 Y131.871 E.03039
G1 X71.747 Y130.452 E.04869
G1 X71.554 Y129.588 E.02775
G1 X71.482 Y128.728 E.02707
G1 X71.482 Y77.634 E1.60203
M204 S1000
G1 X71.859 Y77.634 F10800
M204 S800
G1 F1200
G1 X71.859 Y61.901 E.49327
G1 X71.921 Y61.121 E.02456
G1 X72.081 Y60.367 E.02416
G1 X72.583 Y59.146 E.04137
G1 X72.971 Y58.536 E.02269
G1 X73.444 Y57.961 E.02332
G1 X74.459 Y57.1 E.04173
G1 X75.2 Y56.68 E.02671
G1 X75.981 Y56.375 E.0263
G1 X76.797 Y56.184 E.02626
G1 X77.647 Y56.111 E.02676
G1 X186.804 Y56.111 E3.42255
G1 X187.849 Y56.221 E.03293
G1 X188.539 Y56.402 E.02238
G1 X189.186 Y56.655 E.02178
G1 X190.086 Y57.177 E.03262
G1 X190.853 Y57.82 E.03136
G1 X191.549 Y58.654 E.03407
G1 X191.922 Y59.28 E.02286
G1 X192.217 Y59.947 E.02286
G1 X192.474 Y60.879 E.03034
G1 X192.577 Y61.889 E.03183
G1 X192.577 Y145.039 E2.6071
G1 X192.514 Y145.825 E.02472
G1 X192.35 Y146.589 E.02451
G1 X191.852 Y147.795 E.04089
G1 X191.465 Y148.404 E.02264
G1 X190.992 Y148.979 E.02332
G1 X189.977 Y149.84 E.04173
G1 X189.236 Y150.259 E.02671
G1 X188.455 Y150.565 E.0263
G1 X187.639 Y150.755 E.02626
G1 X186.789 Y150.829 E.02676
G1 X116.055 Y150.829 E2.21781
